X:1
T:Title
%%score { ( 1 2 ) | ( 3 4 ) }
L:1/8
Q:1/4=90
M:6/8
K:Eb
V:1 treble nm="Grand Piano"
V:2 treble 
V:3 bass 
V:4 bass 
V:1
 G3 z3 | .A3 .F3 | G3 .F3 | [G,CEG]6 | G3 z3 | .A3 .F3 | G3 .F3 | [G,E]3- [G,CE]3 | %8
w: Elisha~A.~Hoffman||||||||
 [A,CE]2 [A,CE] .[A,CE]2 [CEc] | B2 A G2 E | F2- [B,DF] [DB]2 [DA] | G6 | [CE]2 [CE] C-[CA][CEc] | %13
w: |||||
 B2 A G2 G | =A3 z3 | [DB]6 | B3 Bcd | [Ge]3 G3 | G3 GAB | c3 [CEF]3 | [DF]2 [EG] [FA]2 [GB] | %21
w: ||||||||
 [Bd]2 [Ac] [GB]2 [FA] | [EG]2 [FA] [GB]2 [Ac] | [GB]6 | B3 Bcd | [Ge]3 G3 | G3 GAB | c3 [CEF]3 | %28
w: |||||||
 [DF]2 [EG] [FA]2 [GB] | [Bd]2 [Ac] [GB]2 [FA] | [B,EG]2 [=A,E] [B,EG]2 [_A,DF] | [G,E]6 |] %32
w: ||||
V:2
 z B,B, EFG | C[A,C][A,C] C[A,C][CA] | z B,B, [A,B,D][A,B,D][A,B,D] | x6 | z B,B, EFG | %5
 C[A,C][A,C] C[A,C][CA] | z B,B, [A,B,D][A,B,D][A,B,D] | B,3 z3 | x6 | x6 | .D3 z3 | z2 E E2 E | %12
 z3 .E3 | x6 | z2 E [B,DB]2 [=A,CEc] | x6 | x6 | x6 | x6 | x6 | x6 | x6 | x6 | x6 | x6 | x6 | x6 | %27
 x6 | x6 | x6 | x6 | x6 |] %32
V:3
 [E,G,B,][E,G,][E,G,] [E,G,][E,F,A,][E,G,B,] | [A,,E,A,][A,,E,][A,,E,] [A,,E,A,][A,,E,][A,,E,A,] | %2
 [B,,E,G,B,][B,,E,G,][B,,E,G,] B,,B,,B,, | E,B,,G,, E,,3 | %4
 [E,G,B,][E,G,][E,G,] [E,G,][E,F,A,][E,G,B,] | [A,,E,A,][A,,E,][A,,E,] [A,,E,A,][A,,E,][A,,E,A,] | %6
 [B,,E,G,B,][B,,E,G,][B,,E,G,] B,,B,,B,, | E,B,,G,, A,,3 | A,,2 A,, z A[A,,A,] | %9
 [E,G,CE]2 [E,G,CE] [E,G,CE]2 [E,G,C] | [B,,A,B,]2 [B,,A,] [B,,A,B,]2 [B,,A,B,] | %11
 [E,G,B,E]2 [E,G,B,] [E,G,B,]2 [E,G,B,] | [A,,A,]2 [A,,A,] [A,,A,]2 [A,,A,] | %13
 [E,G,B,E]2 [E,G,B,E] [E,G,B,E]2 [E,G,B,E] | [F,=A,CE]2 [F,A,C] F,,2 F,, | [B,,F,B,]6 | %16
 [B,D]3 [A,B,D][G,B,E][F,B,F] | [E,B,]3 [E,B,E]3 | [E,B,E]3 [E,B,E][F,B,D][G,B,E] | [A,E]3 A,,3 | %20
 [B,,B,]2 [B,,B,] [B,,B,]2 [B,,B,] | [B,,B,]2 [B,,B,] [B,,B,]2 [B,,B,] | %22
 [E,B,]2 [E,B,] [E,E]2 [E,E] | [E,E]6 | [B,D]3 [A,B,D][G,B,E][F,B,F] | [E,B,]3 [E,B,E]3 | %26
 [E,B,E]3 [E,B,E][F,B,D][G,B,E] | [A,E]3 A,,3 | [B,,B,]2 [B,,B,] [B,,B,]2 [B,,B,] | %29
 [B,,B,]2 [B,,B,] [B,,B,]2 [B,,B,] | E,2 C, B,,2 B,, | E,6 |] %32
V:4
 x6 | x6 | x6 | x6 | x6 | x6 | x6 | x6 | z3 .A,,3 | x6 | x6 | x6 | x6 | x6 | x6 | x6 | x6 | x6 | %18
 x6 | x6 | x6 | x6 | x6 | x6 | x6 | x6 | x6 | x6 | x6 | x6 | x6 | x6 |] %32

